X: 16693
T: Happy Couple, The
R: polka
M: 2/4
K: Gmajor
|:gf/g/ ag|eG cd|ec c'>g|ag ed|
gf/g/ ag|eG cd|ec/e/ g>e|1 dc c2:|2 dc cd||
|:Bd gf/g/|ad fd|ad fd|g/f/g/a/ b2|
Bd gf/g/|ad fd|ad fa|g/f/g/a/ g2:|

